public/images/icons/reconciliantion.svg

<?xml version="1.0" encoding="UTF-8"?>
<svg width="52px" height="52px" viewBox="0 0 52 52" version="1.1" xmlns="http://www.w3.org/2000/svg" xmlns:xlink="http://www.w3.org/1999/xlink">
    <!-- Generator: Sketch 52.2 (67145) - http://www.bohemiancoding.com/sketch -->
    <title>Group 18</title>
    <desc>Created with Sketch.</desc>
    <g id="Page-1" stroke="none" stroke-width="1" fill="none" fill-rule="evenodd">
        <g id="Homepage" transform="translate(-155.000000, -3080.000000)">
            <g id="services" transform="translate(139.000000, 2503.000000)">
                <g id="Group-18" transform="translate(17.000000, 578.000000)">
                    <circle id="Oval-Copy-3" stroke="#5C8098" stroke-width="2" cx="25" cy="25" r="25"></circle>
                    <path d="M30.3558401,21.14816 C30.3558401,21.8016 29.6370561,21.834272 29.7024001,21.8016 L19.9008,21.8016 C19.541408,21.8016 19.24736,21.507552 19.24736,21.14816 C19.24736,20.788768 19.541408,20.49472 19.9008,20.49472 L29.7024001,20.49472 C30.0617921,20.49472 30.3558401,20.788768 30.3558401,21.14816 Z M29.7024001,25.7222401 L19.9008,25.7222401 C19.541408,25.7222401 19.24736,25.362848 19.24736,25.003456 C19.24736,24.644064 19.541408,24.350016 19.9008,24.350016 L29.7024001,24.350016 C30.0617921,24.350016 30.3558401,24.644064 30.3558401,25.003456 C30.3558401,25.362848 30.0617921,25.7222401 29.7024001,25.7222401 Z M29.7024001,29.9696001 L19.9008,29.9696001 C19.541408,29.9696001 19.24736,29.6102081 19.24736,29.2508161 C19.24736,28.8914241 19.541408,28.5973761 19.9008,28.5973761 L29.7024001,28.5973761 C30.0617921,28.5973761 30.3558401,28.8914241 30.3558401,29.2508161 C30.3558401,29.6102081 30.0617921,29.9696001 29.7024001,29.9696001 Z M19.9008,16.57408 L29.7024001,16.57408 C30.0617921,16.57408 30.3558401,16.9008 30.3558401,17.260192 C30.3558401,17.619584 30.0617921,17.913632 29.7024001,17.913632 L19.9008,17.913632 C19.541408,17.913632 19.24736,17.619584 19.24736,17.260192 C19.24736,16.9008 19.541408,16.57408 19.9008,16.57408 Z M15.849472,12 C15.49008,12 15,12.294048 15,12.65344 L15,34.5436801 C15,34.5763521 15.228704,34.9357441 15.359392,35.0991041 L16.894976,37.0594241 C17.025664,37.2227841 17.221696,37.3208001 17.417728,37.3208001 C17.61376,37.3208001 17.809792,37.2227841 17.94048,37.0594241 L18.985984,35.7525441 L20.031488,37.0594241 C20.162176,37.2227841 20.358208,37.3208001 20.55424,37.3208001 C20.750272,37.3208001 20.946304,37.2227841 21.076992,37.0594241 L22.122496,35.7525441 L23.168,37.0594241 C23.429376,37.3861441 23.952128,37.3861441 24.180832,37.0594241 L25.226336,35.7525441 L26.27184,37.0594241 C26.533216,37.3861441 27.055968,37.3861441 27.284672,37.0594241 L28.330176,35.7525441 L29.3756801,37.0594241 C29.5063681,37.2227841 29.7024001,37.3208001 29.8984321,37.3208001 C30.0944641,37.3208001 30.2904961,37.2227841 30.4211841,37.0594241 L31.4666881,35.7525441 L32.5121921,37.0594241 C32.7735681,37.3861441 33.2963201,37.3861441 33.5250241,37.0594241 L35.0606081,35.0991041 C35.1912961,34.9357441 35.4200001,34.2496321 35.4200001,34.2169601 L35.4200001,12.65344 C35.4200001,12.294048 34.9299201,12 34.5705281,12 L15.849472,12 Z" id="Fill-1" fill="#5C8098"></path>
                </g>
            </g>
        </g>
    </g>
</svg>

<svg width="52" height="52" xmlns="http://www.w3.org/2000/svg">
  <g transform="translate(1 1)" fill="none" fill-rule="evenodd">
    <circle stroke="#5C8098" stroke-width="2" cx="25" cy="25" r="25"/>
    <path d="M30.356 21.148c0 .654-.719.686-.654.654h-9.801a.655.655 0 0 1-.654-.654c0-.36.294-.653.654-.653h9.801c.36 0 .654.294.654.653zm-.654 4.574h-9.801c-.36 0-.654-.36-.654-.719s.294-.653.654-.653h9.801c.36 0 .654.294.654.653 0 .36-.294.72-.654.72zm0 4.248h-9.801c-.36 0-.654-.36-.654-.72 0-.359.294-.653.654-.653h9.801c.36 0 .654.294.654.654 0 .36-.294.719-.654.719zm-9.801-13.396h9.801c.36 0 .654.327.654.686 0 .36-.294.654-.654.654h-9.801a.655.655 0 0 1-.654-.654c0-.36.294-.686.654-.686zM15.849 12c-.359 0-.849.294-.849.653v21.89c0 .033.229.393.36.556l1.535 1.96c.13.164.327.262.523.262a.682.682 0 0 0 .522-.262l1.046-1.306 1.045 1.306c.131.164.327.262.523.262a.682.682 0 0 0 .523-.262l1.045-1.306 1.046 1.306c.261.327.784.327 1.013 0l1.045-1.306 1.046 1.306c.261.327.784.327 1.013 0l1.045-1.306 1.046 1.306c.13.164.326.262.522.262a.682.682 0 0 0 .523-.262l1.046-1.306 1.045 1.306c.262.327.784.327 1.013 0l1.536-1.96c.13-.163.359-.85.359-.882V12.653c0-.359-.49-.653-.85-.653H15.85z" fill="#5C8098"/>
  </g>
</svg>
